X:13
T: Barbour's Cordial
C: Keith Murphy ©Black Isle Music, BMI
%S: BIM
%R: Jig
M: 6/8
L: 1/8
K: Dm
"Dm"D2A, DEF |   GFE DFA |  "Bb"d2d     dcA |"Am"c3 cAc  |
  "Bb"dfe  dcA |"F"cAG F3  |[1"Gm"B2d     c2A | "C"G3 GFE :|[2"Gm"GBA "A7"GFE |"Dm"D3 DAe  ||
|:"Dm"f2d "(Am)"ecA |"Dm"f2 d "(Am)"ecA |  "Dm"f2d "(Am)"edc |"Dm"A3   ABc  |
"Bb"d2B   "Am"c2A |"Gm"B2 G    "F"A2F |[1"Gm"G2B       AGF |"A7"E3   EAe :| [2"Gm"GBA "A7"GFE |"Dm"D3 DAe  ||
